components/Icon/svg/window.svg

<svg width="20px" height="18px" viewBox="0 0 20 18" version="1.1" xmlns="http://www.w3.org/2000/svg" xmlns:xlink="http://www.w3.org/1999/xlink">
    <g fill="currentColor" fill-rule="evenodd">
        <path d="M18.5,17 L1.5,17 C1.224,17 1,16.776 1,16.5 L1,5 L19,5 L19,16.5 C19,16.776 18.776,17 18.5,17 M1.5,1 L18.5,1 C18.776,1 19,1.224 19,1.5 L19,4 L1,4 L1,1.5 C1,1.224 1.224,1 1.5,1 M18.5,0 L1.5,0 C0.673,0 0,0.673 0,1.5 L0,16.5 C0,17.327 0.673,18 1.5,18 L18.5,18 C19.327,18 20,17.327 20,16.5 L20,1.5 C20,0.673 19.327,0 18.5,0"></path>
        <path d="M3,2.5 C3,2.776 2.776,3 2.5,3 C2.224,3 2,2.776 2,2.5 C2,2.224 2.224,2 2.5,2 C2.776,2 3,2.224 3,2.5"></path>
        <path d="M5,2.5 C5,2.776 4.776,3 4.5,3 C4.224,3 4,2.776 4,2.5 C4,2.224 4.224,2 4.5,2 C4.776,2 5,2.224 5,2.5"></path>
        <path d="M7,2.5 C7,2.776 6.776,3 6.5,3 C6.224,3 6,2.776 6,2.5 C6,2.224 6.224,2 6.5,2 C6.776,2 7,2.224 7,2.5"></path>
    </g>
</svg>

<svg xmlns="http://www.w3.org/2000/svg" width="20" height="18" viewBox="0 0 20 18">
  <g fill="currentColor" fill-rule="evenodd">
    <path d="M18.5 17h-17a.5.5 0 0 1-.5-.5V5h18v11.5a.5.5 0 0 1-.5.5M1.5 1h17a.5.5 0 0 1 .5.5V4H1V1.5a.5.5 0 0 1 .5-.5m17-1h-17C.673 0 0 .673 0 1.5v15c0 .827.673 1.5 1.5 1.5h17c.827 0 1.5-.673 1.5-1.5v-15c0-.827-.673-1.5-1.5-1.5"/>
    <path d="M3 2.5a.5.5 0 1 1-1 0 .5.5 0 0 1 1 0m2 0a.5.5 0 1 1-1 0 .5.5 0 0 1 1 0m2 0a.5.5 0 1 1-1 0 .5.5 0 0 1 1 0"/>
  </g>
</svg>
